X:030
T:Controversial Reel, The 
B:CRE3.162 (RÃÂÃÂÃÂÃÂ­l na ConspÃÂÃÂÃÂÃÂ³ide)
F:file ID: cre.3/030contro
C:Billy McComiskey (Balto.)
R:reel
L:1/8
Q:180
M:C
K:G
A|B3e dBB2|gabg abge|dG (3Bcd gedB|A/B/A GB ABGA|
Bdde dBB2|g3b abgf|edBd gedB|1 GBAF G3:|2 GBAF GAcA||
|:Bdd2 Ad (3cBA| GEDE GA (3Bcd| eBae gedB|A/B/A GB ABGA|
Bdd2 Ad (3cBA| GEDE GA (3Bcd| bgaf gedB|1 GBAF GAcA:|\
[2 GBAF HG4 |]

%%%

